X:225
T:My Love is in America
R:reel
Z:Transcribed by Dave Marshall
M:C|
K:Dmix
|: ~F3G ABcB|A~d3 Add2|~F3G ABcA|GBAG FDDE|
~F3G ABcB|Add^c defg|afge fdAF| GBAG FDD2 :|
|:f2eg fde^c|A~d3 Adde|f2eg fdAF|GBAG FDD2|
f2eg fde^c|Add^c defg|afge fdAF| GBAG FDD2:|
